X: 3963
T: Blackhaired Lass, The
R: reel
M: 4/4
K: Adorian
"Am"cAAB cdec|"G"d2 gd BG (3GGG|"Am"cAAB cdec|"D"dfec A2 AB|
"Am"cAAB cdec|"G"d2 gd BG (3GGG|"Am"cAAB "C"cdec|"D"dfec "Am"A2 AB||
"Am"cdef "C"g2 eg|"D"(3faf df "Em"gfed|"Am"(3Bcd ef "G"g2 eg|"D"faec "Am"A2 AB|
cdef "C"g2 z g|"D"fadf "Em"e2 fg|"Am"a2 ab "D"agfe|dfec "Am"A2 z2||

